icons/duplicate-24.svg

<svg width="24" height="24" viewBox="0 0 24 24" fill="none" xmlns="http://www.w3.org/2000/svg">
<path fill-rule="evenodd" clip-rule="evenodd" d="M2 9.75C2 8.7835 2.7835 8 3.75 8H6.25C6.66421 8 7 8.33579 7 8.75C7 9.16421 6.66421 9.5 6.25 9.5H3.75C3.61193 9.5 3.5 9.61193 3.5 9.75V20.25C3.5 20.3881 3.61193 20.5 3.75 20.5H14.25C14.3881 20.5 14.5 20.3881 14.5 20.25V17.75C14.5 17.3358 14.8358 17 15.25 17C15.6642 17 16 17.3358 16 17.75V20.25C16 21.2165 15.2165 22 14.25 22H3.75C2.7835 22 2 21.2165 2 20.25V9.75Z" fill="black"/>
<path fill-rule="evenodd" clip-rule="evenodd" d="M8 3.75C8 2.7835 8.7835 2 9.75 2H20.25C21.2165 2 22 2.7835 22 3.75V14.25C22 15.2165 21.2165 16 20.25 16H9.75C8.7835 16 8 15.2165 8 14.25V3.75ZM9.75 3.5C9.61193 3.5 9.5 3.61193 9.5 3.75V14.25C9.5 14.3881 9.61193 14.5 9.75 14.5H20.25C20.3881 14.5 20.5 14.3881 20.5 14.25V3.75C20.5 3.61193 20.3881 3.5 20.25 3.5H9.75Z" fill="black"/>
</svg>

<svg xmlns="http://www.w3.org/2000/svg" width="24" height="24" viewBox="0 0 24 24"><path fill-rule="evenodd" d="M2 9.75C2 8.784 2.784 8 3.75 8h2.5a.75.75 0 010 1.5h-2.5a.25.25 0 00-.25.25v10.5c0 .138.112.25.25.25h10.5a.25.25 0 00.25-.25v-2.5a.75.75 0 011.5 0v2.5A1.75 1.75 0 0114.25 22H3.75A1.75 1.75 0 012 20.25V9.75z"/><path fill-rule="evenodd" d="M8 3.75C8 2.784 8.784 2 9.75 2h10.5c.966 0 1.75.784 1.75 1.75v10.5A1.75 1.75 0 0120.25 16H9.75A1.75 1.75 0 018 14.25V3.75zm1.75-.25a.25.25 0 00-.25.25v10.5c0 .138.112.25.25.25h10.5a.25.25 0 00.25-.25V3.75a.25.25 0 00-.25-.25H9.75z"/></svg>
